X:1
T: The Isle of Muck
C:
R:Reel
Q: 232
K:D
M:4/4
L:1/8
fe fa A2 df|eA ce d4|A2 cA eA cA|ce dB A2 Bc|fe fa A2 df|eA ce d4|A2 cA fe cB|Aa fe d2 fg|
a2 Aa fe fa|eA ce d4|a2 Aa fe fa|ce dB A2 Bc|a2 Aa fe fa|eA ce d4|A2 cA fe cB|Aa fe d2 f2|
AA Ad GG GB|AA Ad f4|A2 cA eA cA|ce dB AB ce|AA Ad GG GB|AA Ad f4|A2 cA fe dB|Aa fe d2 fg|
a2 Aa f2 Af|eA ce d4|g2 fg e2 de|ce dB AB cA|fA Af gB Bg|fA Af a4|A2 cA fe cB|Aa fe d2||
